X: 3
T: Wallop The Potlid
R: jig
M: 6/8
L: 1/8
K: Gmaj
|~F3 DFA|BAF dAG|~F3 DFA|BAG FGE|~F3 DFA|BAF d2 e|fed edB|BAF AFE|


Tune 1454	Setting 14847

